assets/img/rate-stars.svg

<svg width="221" height="33" viewBox="0 0 221 33" fill="none" xmlns="http://www.w3.org/2000/svg">
<path d="M49.5114 14.3706L43.6991 19.2292L45.4699 26.4952C45.5676 26.8897 45.5424 27.3033 45.3976 27.6839C45.2527 28.0645 44.9947 28.395 44.6561 28.6336C44.3174 28.8722 43.9134 29.0082 43.495 29.0245C43.0767 29.0408 42.6627 28.9365 42.3054 28.725L35.7827 24.8361L29.2562 28.725C28.8989 28.9353 28.4854 29.0385 28.0678 29.0217C27.6501 29.0048 27.2469 28.8686 26.909 28.6302C26.5711 28.3918 26.3135 28.0619 26.1688 27.682C26.024 27.3021 25.9986 26.8892 26.0956 26.4952L27.8728 19.2292L22.0605 14.3706C21.7445 14.1059 21.5159 13.757 21.4033 13.3672C21.2908 12.9775 21.2992 12.5643 21.4277 12.1792C21.5561 11.7941 21.7988 11.4542 22.1254 11.2019C22.4521 10.9496 22.8482 10.7962 23.2643 10.7607L30.8849 10.1651L33.8246 3.27315C33.9837 2.89754 34.2546 2.57626 34.6027 2.35014C34.9507 2.12403 35.3604 2.0033 35.7795 2.0033C36.1986 2.0033 36.6082 2.12403 36.9563 2.35014C37.3044 2.57626 37.5752 2.89754 37.7344 3.27315L40.6728 10.1651L48.2934 10.7607C48.7103 10.7948 49.1076 10.9474 49.4354 11.1994C49.7633 11.4513 50.0071 11.7914 50.1363 12.1769C50.2655 12.5625 50.2744 12.9764 50.1619 13.3669C50.0493 13.7573 49.8203 14.1069 49.5036 14.3718L49.5114 14.3706Z" fill="#F8B372" style="fill:#F8B372;fill:color(display-p3 0.9725 0.7010 0.4471);fill-opacity:1;"/>
<path d="M86.8866 14.3708L81.0743 19.2294L82.8451 26.4955C82.9428 26.8899 82.9177 27.3036 82.7728 27.6842C82.628 28.0648 82.3699 28.3952 82.0313 28.6338C81.6927 28.8724 81.2887 29.0085 80.8703 29.0247C80.4519 29.041 80.0379 28.9368 79.6806 28.7252L73.158 24.8363L66.6314 28.7252C66.2742 28.9356 65.8607 29.0388 65.443 29.0219C65.0254 29.0051 64.6222 28.8688 64.2843 28.6305C63.9463 28.3921 63.6888 28.0621 63.544 27.6822C63.3993 27.3023 63.3738 26.8894 63.4708 26.4955L65.2481 19.2294L59.4358 14.3708C59.1197 14.1062 58.8911 13.7572 58.7786 13.3675C58.666 12.9777 58.6745 12.5645 58.8029 12.1794C58.9313 11.7943 59.174 11.4544 59.5006 11.2021C59.8273 10.9499 60.2234 10.7964 60.6396 10.7609L68.2601 10.1653L71.1999 3.27339C71.359 2.89779 71.6298 2.5765 71.9779 2.35039C72.326 2.12427 72.7356 2.00354 73.1547 2.00354C73.5738 2.00354 73.9835 2.12427 74.3316 2.35039C74.6797 2.5765 74.9505 2.89779 75.1096 3.27339L78.048 10.1653L85.6686 10.7609C86.0856 10.7951 86.4829 10.9477 86.8107 11.1996C87.1385 11.4515 87.3823 11.7916 87.5115 12.1772C87.6408 12.5627 87.6497 12.9767 87.5371 13.3671C87.4246 13.7575 87.1956 14.1071 86.8789 14.3721L86.8866 14.3708Z" fill="#F8B372" style="fill:#F8B372;fill:color(display-p3 0.9725 0.7010 0.4471);fill-opacity:1;"/>
<path d="M124.254 14.3708L118.441 19.2294L120.212 26.4955C120.31 26.8899 120.285 27.3036 120.14 27.6842C119.995 28.0648 119.737 28.3952 119.399 28.6338C119.06 28.8724 118.656 29.0085 118.237 29.0247C117.819 29.041 117.405 28.9368 117.048 28.7252L110.525 24.8363L103.999 28.7252C103.641 28.9356 103.228 29.0388 102.81 29.0219C102.393 29.0051 101.989 28.8688 101.651 28.6305C101.314 28.3921 101.056 28.0621 100.911 27.6822C100.766 27.3023 100.741 26.8894 100.838 26.4955L102.615 19.2294L96.803 14.3708C96.4869 14.1062 96.2583 13.7572 96.1458 13.3675C96.0332 12.9777 96.0417 12.5645 96.1701 12.1794C96.2985 11.7943 96.5412 11.4544 96.8678 11.2021C97.1945 10.9499 97.5906 10.7964 98.0068 10.7609L105.627 10.1653L108.567 3.27339C108.726 2.89779 108.997 2.5765 109.345 2.35039C109.693 2.12427 110.103 2.00354 110.522 2.00354C110.941 2.00354 111.351 2.12427 111.699 2.35039C112.047 2.5765 112.318 2.89779 112.477 3.27339L115.415 10.1653L123.036 10.7609C123.453 10.7951 123.85 10.9477 124.178 11.1996C124.506 11.4515 124.75 11.7916 124.879 12.1772C125.008 12.5627 125.017 12.9767 124.904 13.3671C124.792 13.7575 124.563 14.1071 124.246 14.3721L124.254 14.3708Z" fill="#F8B372" style="fill:#F8B372;fill:color(display-p3 0.9725 0.7010 0.4471);fill-opacity:1;"/>
<path d="M161.629 14.3708L155.816 19.2294L157.587 26.4955C157.685 26.8899 157.66 27.3036 157.515 27.6842C157.37 28.0648 157.112 28.3952 156.774 28.6338C156.435 28.8724 156.031 29.0085 155.612 29.0247C155.194 29.041 154.78 28.9368 154.423 28.7252L147.9 24.8363L141.374 28.7252C141.016 28.9356 140.603 29.0388 140.185 29.0219C139.768 29.0051 139.364 28.8688 139.026 28.6305C138.689 28.3921 138.431 28.0621 138.286 27.6822C138.141 27.3023 138.116 26.8894 138.213 26.4955L139.99 19.2294L134.178 14.3708C133.862 14.1062 133.633 13.7572 133.521 13.3675C133.408 12.9777 133.417 12.5645 133.545 12.1794C133.674 11.7943 133.916 11.4544 134.243 11.2021C134.569 10.9499 134.966 10.7964 135.382 10.7609L143.002 10.1653L145.942 3.27339C146.101 2.89779 146.372 2.5765 146.72 2.35039C147.068 2.12427 147.478 2.00354 147.897 2.00354C148.316 2.00354 148.726 2.12427 149.074 2.35039C149.422 2.5765 149.693 2.89779 149.852 3.27339L152.79 10.1653L160.411 10.7609C160.828 10.7951 161.225 10.9477 161.553 11.1996C161.881 11.4515 162.125 11.7916 162.254 12.1772C162.383 12.5627 162.392 12.9767 162.279 13.3671C162.167 13.7575 161.938 14.1071 161.621 14.3721L161.629 14.3708Z" fill="#F8B372" style="fill:#F8B372;fill:color(display-p3 0.9725 0.7010 0.4471);fill-opacity:1;"/>
<path d="M198.996 14.3708L193.184 19.2294L194.954 26.4955C195.052 26.8899 195.027 27.3036 194.882 27.6842C194.737 28.0648 194.479 28.3952 194.141 28.6338C193.802 28.8724 193.398 29.0085 192.98 29.0247C192.561 29.041 192.147 28.9368 191.79 28.7252L185.267 24.8363L178.741 28.7252C178.384 28.9356 177.97 29.0388 177.552 29.0219C177.135 29.0051 176.732 28.8688 176.394 28.6305C176.056 28.3921 175.798 28.0621 175.653 27.6822C175.509 27.3023 175.483 26.8894 175.58 26.4955L177.357 19.2294L171.545 14.3708C171.229 14.1062 171.001 13.7572 170.888 13.3675C170.775 12.9777 170.784 12.5645 170.912 12.1794C171.041 11.7943 171.283 11.4544 171.61 11.2021C171.937 10.9499 172.333 10.7964 172.749 10.7609L180.37 10.1653L183.309 3.27339C183.468 2.89779 183.739 2.5765 184.087 2.35039C184.435 2.12427 184.845 2.00354 185.264 2.00354C185.683 2.00354 186.093 2.12427 186.441 2.35039C186.789 2.5765 187.06 2.89779 187.219 3.27339L190.157 10.1653L197.778 10.7609C198.195 10.7951 198.592 10.9477 198.92 11.1996C199.248 11.4515 199.492 11.7916 199.621 12.1772C199.75 12.5627 199.759 12.9767 199.646 13.3671C199.534 13.7575 199.305 14.1071 198.988 14.3721L198.996 14.3708Z" fill="#F8B372" style="fill:#F8B372;fill:color(display-p3 0.9725 0.7010 0.4471);fill-opacity:1;"/>
</svg>

<svg xmlns="http://www.w3.org/2000/svg" width="221" height="33" fill="none"><path fill="#F8B372" d="M49.511 14.37 43.7 19.23l1.77 7.265c.099.395.073.808-.071 1.189a2.06 2.06 0 0 1-.742.95 2.172 2.172 0 0 1-2.35.091l-6.523-3.889-6.527 3.889a2.17 2.17 0 0 1-2.347-.095 2.06 2.06 0 0 1-.74-.948 2 2 0 0 1-.073-1.187l1.777-7.266-5.812-4.858a2.05 2.05 0 0 1-.658-1.004 2 2 0 0 1 .025-1.188 2.06 2.06 0 0 1 .697-.977 2.17 2.17 0 0 1 1.14-.441l7.62-.596 2.94-6.892c.159-.375.43-.697.778-.923a2.16 2.16 0 0 1 1.176-.347c.42 0 .83.121 1.177.347s.62.548.778.923l2.939 6.892 7.62.596c.417.034.815.186 1.142.438.328.252.572.592.701.978.13.386.138.8.026 1.19s-.342.74-.658 1.005zM86.887 14.37l-5.813 4.86 1.771 7.265c.098.395.073.809-.072 1.19a2.06 2.06 0 0 1-.742.949 2.17 2.17 0 0 1-2.35.091l-6.523-3.889-6.527 3.89a2.17 2.17 0 0 1-2.347-.095 2.06 2.06 0 0 1-.74-.949 2 2 0 0 1-.073-1.186l1.777-7.267-5.812-4.858a2.05 2.05 0 0 1-.657-1.004 2 2 0 0 1 .024-1.188 2.06 2.06 0 0 1 .698-.977 2.17 2.17 0 0 1 1.139-.441l7.62-.596 2.94-6.892c.159-.375.43-.697.778-.923a2.16 2.16 0 0 1 1.177-.346c.419 0 .829.12 1.177.346s.619.548.778.923l2.938 6.892 7.62.596c.418.034.815.187 1.143.439.327.252.571.592.7.977.13.386.139.8.026 1.19-.112.39-.341.74-.658 1.005zM124.254 14.37l-5.813 4.86 1.771 7.265c.098.395.073.809-.072 1.19s-.403.71-.741.949a2.169 2.169 0 0 1-2.351.091l-6.523-3.889-6.526 3.89a2.17 2.17 0 0 1-2.348-.095 2.07 2.07 0 0 1-.74-.949 2 2 0 0 1-.073-1.186l1.777-7.267-5.812-4.858a2.05 2.05 0 0 1-.657-1.004 2 2 0 0 1 .024-1.188 2.06 2.06 0 0 1 .698-.977 2.17 2.17 0 0 1 1.139-.441l7.62-.596 2.94-6.892c.159-.375.43-.697.778-.923a2.16 2.16 0 0 1 1.177-.346c.419 0 .829.12 1.177.346s.619.548.778.923l2.938 6.892 7.621.596c.417.034.814.187 1.142.439s.572.592.701.977c.129.386.138.8.025 1.19-.112.39-.341.74-.658 1.005zM161.629 14.37l-5.813 4.86 1.771 7.265c.098.395.073.809-.072 1.19s-.403.71-.741.949a2.169 2.169 0 0 1-2.351.091l-6.523-3.889-6.526 3.89a2.17 2.17 0 0 1-2.348-.095 2.07 2.07 0 0 1-.74-.949 2 2 0 0 1-.073-1.186l1.777-7.267-5.812-4.858a2.05 2.05 0 0 1-.657-1.004 2 2 0 0 1 .024-1.188c.129-.385.371-.725.698-.977a2.16 2.16 0 0 1 1.139-.441l7.62-.596 2.94-6.892c.159-.375.43-.697.778-.923a2.16 2.16 0 0 1 1.177-.346c.419 0 .829.12 1.177.346s.619.548.778.923l2.938 6.892 7.621.596c.417.034.814.187 1.142.439s.572.592.701.977c.129.386.138.8.025 1.19-.112.39-.341.74-.658 1.005zM198.996 14.37l-5.812 4.86 1.77 7.265c.098.395.073.809-.072 1.19s-.403.71-.741.949a2.17 2.17 0 0 1-2.351.091l-6.523-3.889-6.526 3.89a2.17 2.17 0 0 1-2.347-.095 2.06 2.06 0 0 1-.741-.949 2 2 0 0 1-.073-1.186l1.777-7.267-5.812-4.858a2.06 2.06 0 0 1-.657-1.004 2 2 0 0 1 .024-1.188c.129-.385.371-.725.698-.977a2.17 2.17 0 0 1 1.139-.441l7.621-.596 2.939-6.892c.159-.375.43-.697.778-.923a2.16 2.16 0 0 1 1.177-.346c.419 0 .829.12 1.177.346s.619.548.778.923l2.938 6.892 7.621.596c.417.034.814.187 1.142.439s.572.592.701.977c.129.386.138.8.025 1.19-.112.39-.341.74-.658 1.005z" style="fill:#f8b372;fill:color(display-p3 .9725 .701 .4471);fill-opacity:1"/></svg>
